!!!!SEGMENT: pl-kk--kk-i-1--014-004_certon-pierre--missa-sanctus.krn
!!!cenid: 15xx:726
!!!COM: Certon, Pierre
!!!COM-rismID:
!!!CDT: ~1510-1572/02/23
!!!CNT: French
!!!OPR: [Missa]
!!!OTL: Sanctus
!!!OMV: 004
!!!PDT:
!!!AGN: Sacred; Mass
!!!SMS-siglum: PL-Kk
!!!SMS-shelfmark: Kk.I.1
!!!SMS-shelfwork: 014-004 M
!!!SMS-variant:
!!!SMS-altvar:
!!!NIFC-rismSourceID: 300257968
!!!NIFC-islandoraID: pl-kk:1
!!!URL-pdf-islandora: https://repozytorium.nifc.pl/islandora/object/pl-kk%3A1/datastream/PDF/view
!!!URL-scan: https://polish.musicsources.pl/pl/lokalizacje/galeria/rekopisy/5736 @EN{Scan on Polish Music Herritage in Open Access Website} @PL{Skany w portalu Dziedzictwo Muzyki Polskiej w otwartym dostępie}
!!!ONB-nifc: UWAGA: Cantus (s. 82r-90r, skan 0084-0092), Altus (s. 79r-86v, skan 0271-0279), Tenor (s. 76v-83r, skan 0466-0472), Bassus (s. 76v-85v, skan 0638-0645). Części Mszy: 1. Kyrie, 2. Et in terra, 3. Patrem, 4. Sanctus, 5. Agnus Dei
!!!AIN: 1 alto 1 bass 1 soprn 1 tenor
!!!key: d:dor
**kern	**text	**kern	**text	**kern	**text	**kern	**text
*part4	*part4	*part3	*part3	*part2	*part2	*part1	*part1
*staff4	*staff4	*staff3	*staff3	*staff2	*staff2	*staff1	*staff1
*I"BASSVS	*	*I"TENOR	*	*I"ALTVS	*	*I"CANTVS	*
*I'B	*	*I'T	*	*I'A	*	*I'S	*
*Ibass	*	*Itenor	*	*Ialto	*	*Isoprn	*
*ICvox	*	*ICvox	*	*ICvox	*	*ICvox	*
*clefF4	*	*clefC4	*	*clefC4	*	*clefC4	*
*k[]	*	*k[]	*	*k[]	*	*k[]	*
*d:dor	*	*d:dor	*	*d:dor	*	*d:dor	*
*M2/1	*	*M2/1	*	*M2/1	*	*M2/1	*
*met(C|)	*	*met(C|)	*	*met(C|)	*	*met(C|)	*
=1-	=1-	=1-	=1-	=1-	=1-	=1-	=1-
*stria6	*	*stria6	*	*stria6	*	*stria6	*
!!LO:TX:t=P:problem:all\middle:global
!!LO:TX:t=P:problem:oddech/cezura na różnej wysokości
!LO:TX:t=P:problem=pierwsza litera tekstu w kolorze czerwonym	!	!LO:TX:t=P:problem=ozdobna pierwsza litera tekstu w kolorze czerwonym	!	!LO:TX:t=P:problem=pierwsza litera tekstu w kolorze czerwonym	!	!LO:TX:t=P:problem=ozdobna pierwsza litera tekstu w kolorze czerwonym	!
00r	.	00r	.	0D	SAn-	1r	.
.	.	.	.	.	.	1.d	SAn-
=2-	=2-	=2-	=2-	=2-	=2-	=2-	=2-
*	*	*	*	*lig	*	*	*
.	.	.	.	1F	-ctus	.	.
.	.	.	.	.	.	2c\	-ctus
.	.	.	.	1G	.	1B	.
*	*	*	*	*Xlig	*	*	*
=3-	=3-	=3-	=3-	=3-	=3-	=3-	=3-
1r	.	0D	SAn-	0A	.	0A	.
1.D	SAn-	.	.	.	.	.	.
=4-	=4-	=4-	=4-	=4-	=4-	=4-	=4-
*	*	*lig	*	*	*	*	*
.	.	1F	-ctus	1r	.	1r	.
2C/	-ctus	.	.	.	.	.	.
1BB	.	1G	.	1.d	San-	2.D/	San-
.	.	.	.	.	.	4E/	.
*	*	*Xlig	*	*	*	*	*
=5-	=5-	=5-	=5-	=5-	=5-	=5-	=5-
1AA	.	1A	.	.	.	4F/	.
.	.	.	.	.	.	4G/	.
.	.	.	.	2c\	-ctus	1A	.
1r	.	2r	.	1B	.	.	.
.	.	1d\	ſan-	.	.	2G/	.
=6-	=6-	=6-	=6-	=6-	=6-	=6-	=6-
0r	.	.	.	2A/	.	1A	-ctus
.	.	2c\	-ctus	1A	.	.	.
.	.	1B	.	.	.	1r	.
.	.	.	.	2G/	.	.	.
=7-	=7-	=7-	=7-	=7-	=7-	=7-	=7-
1.A	.	1A	.	1F	.	2r	.
.	.	.	.	.	.	2A/	ſan-
*	*	*	*	*	*	*lig	*
.	.	1r	.	1E	.	1c	-ctus
2G\	ſan-	.	.	.	.	.	.
=8-	=8-	=8-	=8-	=8-	=8-	=8-	=8-
1F	-ctus	2r	.	2r	.	1d	.
*	*	*	*ij	*	*	*	*
.	.	2A/	ſan-	1A	.	.	.
*	*	*lig	*	*	*	*Xlig	*
1E	.	1B	.	.	.	0.e	.
.	.	.	.	2G/	ſan-	.	.
=9-	=9-	=9-	=9-	=9-	=9-	=9-	=9-
2AA/	.	1c	.	2A/	-ctus	.	.
1A	.	.	.	1c	.	.	.
*	*	*Xlig	*	*	*	*	*
.	.	2A\	.	.	.	.	.
2G\	.	2B\	.	1B\	.	.	.
=10-	=10-	=10-	=10-	=10-	=10-	=10-	=10-
*	*	*	*	*	*	*lig	*
2F\	.	2c\	.	.	.	1f	.
2D/	.	2d\	.	1A	.	.	.
1E	.	1B	-ctus	.	.	1e	.
*	*	*	*Xij	*	*	*	*
.	.	.	.	2G/	.	.	.
*	*	*	*	*	*	*Xlig	*
=11-	=11-	=11-	=11-	=11-	=11-	=11-	=11-
1AA	.	2r	.	2.A/	.	1c	.
.	.	2.A/	San-	.	.	.	.
.	.	.	.	4G/	.	.	.
*	*	*	*	*custos:F	*	*custos:d	*
!	!	!	!	!LO:LB:g=original	!	!LO:LB:g=original	!
2r	.	.	.	4F/	.	2d\	.
.	.	4G/	.	4E/	.	.	.
1D\	ſan	4F/	.	2D/	.	1f\	.
.	.	4E/	.	.	.	.	.
=12-	=12-	=12-	=12-	=12-	=12-	=12-	=12-
.	.	2D/	.	1A	.	.	.
2C/	.	2E/	.	.	.	1e	.
*custos:BB	*	*custos:F	*	*lig	*	*	*
!LO:LB:g=original	!	!LO:LB:g=original	!	!	!	!	!
2BB/	.	2F/	.	1B	.	.	.
2GG/	.	2G/	.	.	.	1d\	.
=13-	=13-	=13-	=13-	=13-	=13-	=13-	=13-
1AA	.	1E	.	1A	.	.	.
.	.	.	.	.	.	2c\	.
*	*	*	*	*Xlig	*	*	*
0D	.	0D	-ctus	1A	.	2d\	.
*	*	*	*	*	*	*lig	*
.	.	.	.	.	.	1d\	Do-
=14-	=14-	=14-	=14-	=14-	=14-	=14-	=14-
.	.	.	.	2r	.	.	.
*	*	*	*	*lig	*	*	*
.	.	.	.	1A	Do-	1f	.
1r	.	00r	.	.	.	.	.
*	*	*	*	*	*	*Xlig	*
.	.	.	.	1c\	.	2e\	-mi-
*	*	*	*	*Xlig	*	*	*
=15-	=15-	=15-	=15-	=15-	=15-	=15-	=15-
00r	.	.	.	.	.	2c\	-nus
.	.	.	.	2B\	-mi-	2d\	.
.	.	.	.	2G/	-nus	2e\	de-
.	.	.	.	2.A/	De-	2.f\	-us
=16-	=16-	=16-	=16-	=16-	=16-	=16-	=16-
.	.	.	.	.	.	.	.
.	.	.	.	4G/	-us	4e\	Sab-
.	.	.	.	2F/	Sal-	1d	-ba-
.	.	0r	.	1E	-ba-	.	.
.	.	.	.	.	.	2c\	-oth
=17-	=17-	=17-	=17-	=17-	=17-	=17-	=17-
*lig	*	*	*	*	*	*	*
1D	Do-	.	.	0D	-ot	1d	.
*	*	*lig	*	*	*	*	*
1.F	.	1A	Do-	.	.	00r	.
*Xlig	*	*	*	*	*	*	*
=18-	=18-	=18-	=18-	=18-	=18-	=18-	=18-
.	.	1.c	.	0r	.	.	.
2E\	-mi-	.	.	.	.	.	.
2C/	-nus	.	.	.	.	.	.
*	*	*Xlig	*	*	*	*	*
2D/	De-	2B\	-mi-	.	.	.	.
=19-	=19-	=19-	=19-	=19-	=19-	=19-	=19-
2E/	-us	2G/	-nus	1r	.	.	.
2.F/	.	2.A/	de-	.	.	.	.
.	.	.	.	2r	.	0r	.
4E/	.	4G/	-us	.	.	.	.
1D\	Sal-	2F/	ſal-	1A\	De-	.	.
=20-	=20-	=20-	=20-	=20-	=20-	=20-	=20-
.	.	1E	-ba-	.	.	.	.
2C/	-ba-	.	.	2c\	-us	.	.
0D	-oth	1D	-oth	2B\	Sal-	2r	.
.	.	.	.	2A\	-ba-	1d\	d(o-
=21-	=21-	=21-	=21-	=21-	=21-	=21-	=21-
.	.	2r	.	1d	-ot	.	.
*	*	*	*ij	*	*	*	*
.	.	2A/	Do-	.	.	2f\	-mi)-
2r	.	2c\	-mi-	1r	.	2e\	-nus
*	*ij	*	*	*	*	*	*
2D/	Do-	2B\	-nus	.	.	1d\	De-
=22-	=22-	=22-	=22-	=22-	=22-	=22-	=22-
2.F\	-mi-	2.A/	de-	0r	.	.	.
.	.	.	.	.	.	2c\	-us
4E/	-nus	4G/	-us	.	.	.	.
*	*	*	*	*	*	*custos:B	*
!	!	!	!	!	!	!LO:LB:g=original	!
2D/	De-	2F/	ſal-	.	.	2B/	ſa-
2C/	-us	2E/	-ba-	.	.	1A\	-ba-
=23-	=23-	=23-	=23-	=23-	=23-	=23-	=23-
2BB/	Sal-	1D	-oth	2r	.	.	.
*	*	*	*Xij	*	*	*	*
2BB/	-ba-	.	.	2d\	.	2G/	-oth
*custos:AA	*	*	*	*custos:f	*	*	*
!LO:LB:g=original	!	!	!	!LO:LB:g=original	!	!	!
0AA	-oth	2r	.	1.f	.	1A	.
*	*Xij	*	*	*	*	*	*
.	.	1A\	de-	.	.	.	.
=24-	=24-	=24-	=24-	=24-	=24-	=24-	=24-
.	.	.	.	.	.	0r	.
.	.	2c\	-us	2e\	.	.	.
*	*	*custos:B	*	*	*	*	*
!	!	!LO:LB:g=original	!	!	!	!	!
1r	.	2B\	.	2d\	.	.	.
.	.	1A\	.	2c\	.	.	.
=25-	=25-	=25-	=25-	=25-	=25-	=25-	=25-
00r	.	.	.	2B\	.	2r	.
.	.	2G/	ſab-	2B\	.	2d\	De-
.	.	2F/	-ba-	2A/	.	2.f\	-us
.	.	2D/	-oth	1B\	.	.	.
.	.	.	.	.	.	4e\	.
=26-	=26-	=26-	=26-	=26-	=26-	=26-	=26-
.	.	2G/	.	.	.	2d\	.
.	.	2A/	.	1A	.	2c\	ſab-
.	.	1E	.	.	.	2B/	-ba-
.	.	.	.	2G/	.	2B/	-oth
=27-	=27-	=27-	=27-	=27-	=27-	=27-	=27-
2r	.	2F/	.	2A/	.	2A/	.
2D\	De-	2D/	.	1A	De-	1d	.
2.F\	-us	2.A/	.	.	.	.	.
.	.	.	.	2c\	-us	2c\	.
4E/	.	4G/	.	.	.	.	.
=28-	=28-	=28-	=28-	=28-	=28-	=28-	=28-
2D/	.	2F/	.	2B\	.	2d\	.
2C/	Sab-	2E/	.	1A	Sal-	1e	.
2BB/	-ba-	2F/	.	.	.	.	.
2BB/	-oth	2D/	.	2G/	-ba-	1d\	.
=29-	=29-	=29-	=29-	=29-	=29-	=29-	=29-
*lig	*	*	*	*	*	*	*
1AA	.	1A	.	2F/	-oth	.	.
.	.	.	.	2E/	.	2c\	.
1D	.	2r	.	2F/	.	2d\	.
.	.	2A/	de-	2D/	.	2f\	sab-
*Xlig	*	*	*	*	*	*	*
=30-	=30-	=30-	=30-	=30-	=30-	=30-	=30-
2r	.	2c\	-us	2A/	.	2e\	-ba-
2D/	De-	2B\	.	2.D/	.	1d	-oth.
*	*	*col	*	*	*	*	*
2.F\	-us	2.A\	Sab-	.	.	.	.
.	.	.	.	4E/	.	.	.
.	.	.	.	4F/	.	2c\	.
4E/	.	4G/	.	4G/	.	.	.
*	*	*Xcol	*	*	*	*custos:d	*
=31-	=31-	=31-	=31-	=31-	=31-	=31-	=31-
!	!	!	!	!	!	!LO:LB:g=original	!
2D/	Sal-	4F/	-ba-	2A/	.	2d\	.
.	.	4E/	.	.	.	.	.
*	*	*	*	*custos:E	*	*	*
!	!	!	!	!LO:LB:g=original	!	!	!
2C/	-ba-	2.G/	-oth	2E/	.	1e	.
2BB/	-oth	.	.	2F/	.	.	.
.	.	4F/	.	.	.	.	.
2BB/	.	4E/	.	2G/	.	1d\	.
.	.	4D/	.	.	.	.	.
=32-	=32-	=32-	=32-	=32-	=32-	=32-	=32-
1AA	.	1E	.	1A	.	.	.
.	.	.	.	.	.	2c\	.
1D;\l	.	1D;l	.	1F;l	.	1d;<l	.
=33-	=33-	=33-	=33-	=33-	=33-	=33-	=33-
!LO:PB:g=original	!	!	!	!	!	!	!
*M2/1	*	*	*	*	*	*	*
*met(C|)	*	*	*	*	*	*	*
!LO:TX:t=P:problem=pierwsza litera tekstu w kolorze czerwonym	!	!	!	!	!	!LO:TX:t=P:problem=ozdobna pierwsza litera tekstu w kolorze czerwonym	!
!LO:TX:a:t=Duo:color=red	!	!LO:TX:a:t=Pleni sunt. tacet.:color=red	!	!LO:TX:b:t=Pleni tacet.:color=red	!	!LO:TX:t=Duo.:color=red 	!
00r	.	0ryy	.	0ryy	.	1d	Ple-
.	.	.	.	.	.	2d\	-ni
.	.	.	.	.	.	2d\	ſunt
=34-	=34-	=34-	=34-	=34-	=34-	=34-	=34-
.	.	0ryy	.	0ryy	.	4c\	.
.	.	.	.	.	.	4B\	.
.	.	.	.	.	.	4A/	coe-
.	.	.	.	.	.	4G/	.
.	.	.	.	.	.	2.A/	.
.	.	.	.	.	.	8G/L	.
.	.	.	.	.	.	8A/J	.
=35-	=35-	=35-	=35-	=35-	=35-	=35-	=35-
1D	Ple-	0ryy	.	0ryy	.	2B/	.
.	.	.	.	.	.	1A	.
2D/	-ni	.	.	.	.	.	.
2D/	ſunt	.	.	.	.	4G/	.
.	.	.	.	.	.	4F/	.
=36-	=36-	=36-	=36-	=36-	=36-	=36-	=36-
4C/	.	0ryy	.	0ryy	.	2E/	.
4BB/	.	.	.	.	.	.	.
4AA/	coe-	.	.	.	.	1c	.
4GG/	.	.	.	.	.	.	.
2AA/	.	.	.	.	.	.	.
*	*	*	*	*	*	*custos:B	*
!	!	!	!	!	!	!LO:PB:g=original	!
2BB/	.	.	.	.	.	1B\	.
=37-	=37-	=37-	=37-	=37-	=37-	=37-	=37-
2C/	.	0ryy	.	0ryy	.	.	.
2D/	.	.	.	.	.	1A	.
1BB	.	.	.	.	.	.	.
.	.	.	.	.	.	2G/	.
=38-	=38-	=38-	=38-	=38-	=38-	=38-	=38-
1AA	-li	0ryy	.	0ryy	.	0.A	-li
2r	.	.	.	.	.	.	.
2.D/	&	.	.	.	.	.	.
=39-	=39-	=39-	=39-	=39-	=39-	=39-	=39-
.	.	0ryy	.	0ryy	.	.	.
4E/	.	.	.	.	.	.	.
4F/	.	.	.	.	.	.	.
4D/	.	.	.	.	.	.	.
2F\	.	.	.	.	.	1r	.
2G\	ter-	.	.	.	.	.	.
=40-	=40-	=40-	=40-	=40-	=40-	=40-	=40-
1D	-ra	0ryy	.	0ryy	.	2r	.
.	.	.	.	.	.	2.A/	et
1.A	.	.	.	.	.	.	.
.	.	.	.	.	.	4B/	.
.	.	.	.	.	.	4c/	.
.	.	.	.	.	.	4A/	.
=41-	=41-	=41-	=41-	=41-	=41-	=41-	=41-
.	.	0ryy	.	0ryy	.	2c\	.
2G\	.	.	.	.	.	2d\	ter-
2F\	.	.	.	.	.	0A	-ra
*custos:D	*	*	*	*	*	*	*
!LO:LB:g=original	!	!	!	!	!	!	!
2.D/	.	.	.	.	.	.	.
=42-	=42-	=42-	=42-	=42-	=42-	=42-	=42-
.	.	0ryy	.	0ryy	.	.	.
4E/	.	.	.	.	.	.	.
1F	.	.	.	.	.	.	.
.	.	.	.	.	.	0d	et
4E/	.	.	.	.	.	.	.
4D/	.	.	.	.	.	.	.
=43-	=43-	=43-	=43-	=43-	=43-	=43-	=43-
4G\	.	0ryy	.	0ryy	.	.	.
4F\	.	.	.	.	.	.	.
4E\	.	.	.	.	.	.	.
4D\	.	.	.	.	.	.	.
1E	.	.	.	.	.	1c	ter-
=44-	=44-	=44-	=44-	=44-	=44-	=44-	=44-
*lig	*	*	*	*	*	*	*
1D	.	0ryy	.	0ryy	.	2d\	-ra
.	.	.	.	.	.	2.A/	.
1F	.	.	.	.	.	.	.
.	.	.	.	.	.	4B/	.
.	.	.	.	.	.	1c\	.
*Xlig	*	*	*	*	*	*	*
=45-	=45-	=45-	=45-	=45-	=45-	=45-	=45-
2E\	.	0ryy	.	0ryy	.	.	.
2.F\	.	.	.	.	.	4B/	.
.	.	.	.	.	.	4A/	.
.	.	.	.	.	.	4d\	.
4E/	.	.	.	.	.	4c\	.
1A\	.	.	.	.	.	4B/	.
.	.	.	.	.	.	4A/	.
=46-	=46-	=46-	=46-	=46-	=46-	=46-	=46-
.	.	0ryy	.	0ryy	.	1B	.
2G\	.	.	.	.	.	.	.
*	*	*	*	*	*	*custos:A	*
!	!	!	!	!	!	!LO:LB:g=original	!
2A\	.	.	.	.	.	1A	.
2.AA/	.	.	.	.	.	.	.
=47-	=47-	=47-	=47-	=47-	=47-	=47-	=47-
.	.	0ryy	.	0ryy	.	2.E/	.
4BB/	.	.	.	.	.	.	.
1C	.	.	.	.	.	.	.
.	.	.	.	.	.	4F/	.
.	.	.	.	.	.	2G/	.
4BB/	.	.	.	.	.	2A/	.
4AA/	.	.	.	.	.	.	.
=48-	=48-	=48-	=48-	=48-	=48-	=48-	=48-
4D/	.	0ryy	.	0ryy	.	2B/	.
4C/	.	.	.	.	.	.	.
4BB/	.	.	.	.	.	1A	.
4AA/	.	.	.	.	.	.	.
1BB	.	.	.	.	.	.	.
.	.	.	.	.	.	2G/	.
=49-	=49-	=49-	=49-	=49-	=49-	=49-	=49-
1AA	.	0ryy	.	0ryy	.	0.A	.
2r	.	.	.	.	.	.	.
*custos:D	*	*	*	*	*	*	*
!LO:LB:g=original	!	!	!	!	!	!	!
2.D/	glo-	.	.	.	.	.	.
=50-	=50-	=50-	=50-	=50-	=50-	=50-	=50-
.	.	0ryy	.	0ryy	.	.	.
4C/	.	.	.	.	.	.	.
4D/	.	.	.	.	.	.	.
4E/	.	.	.	.	.	.	.
2F\	-ri-	.	.	.	.	2r	.
2D\	-a	.	.	.	.	2.A/	glo-
=51-	=51-	=51-	=51-	=51-	=51-	=51-	=51-
1F	.	0ryy	.	0ryy	.	.	.
.	.	.	.	.	.	4G/	.
.	.	.	.	.	.	4A/	.
.	.	.	.	.	.	4B/	.
2E\	tu-	.	.	.	.	2c\	-ri-
2.F\	-a.	.	.	.	.	2A/	-a
=52-	=52-	=52-	=52-	=52-	=52-	=52-	=52-
.	.	0ryy	.	0ryy	.	1c	tu-
4E\	.	.	.	.	.	.	.
2C/	.	.	.	.	.	.	.
2D/	.	.	.	.	.	1B	-a.
2E/	.	.	.	.	.	.	.
=53-	=53-	=53-	=53-	=53-	=53-	=53-	=53-
2AA/	.	0ryy	.	0ryy	.	1A	.
2.D/	.	.	.	.	.	.	.
.	.	.	.	.	.	2.d\	tu-
4C/	.	.	.	.	.	.	.
4D/	.	.	.	.	.	.	.
4E/	.	.	.	.	.	4c\	-a.
=54-	=54-	=54-	=54-	=54-	=54-	=54-	=54-
2F\	.	0ryy	.	0ryy	.	4d\	.
.	.	.	.	.	.	4e\	.
2D\	.	.	.	.	.	2.f\	.
1F	.	.	.	.	.	.	.
.	.	.	.	.	.	4e\	.
.	.	.	.	.	.	1d\	.
=55-	=55-	=55-	=55-	=55-	=55-	=55-	=55-
1E	.	0ryy	.	0ryy	.	.	.
.	.	.	.	.	.	2c\	.
1D;/l	.	.	.	.	.	1d;<l	.
=56-	=56-	=56-	=56-	=56-	=56-	=56-	=56-
!LO:LB:g=original	!	!LO:LB:g=original	!	!LO:PB:g=original	!	!LO:LB:g=original	!
*M3/1	*	*M3/1	*	*M3/1	*	*M3/1	*
!!LO:TX:t=P:problem:zapis metrum 3
!LO:TX:t=P:problem=ozdobna pierwsza litera tekstu w kolorze czerwonym	!	!LO:TX:t=P:problem=ozdobna pierwsza litera tekstu w kolorze czerwonym	!	!	!	!	!
!LO:N:vis=00	!	!LO:N:vis=00	!	!	!	!LO:TX:t=P:problem=ozdobna pierwsza litera tekstu w kolorze czerwonym	!
00.r	.	00.r	.	1r	.	1D	O-
.	.	.	.	1D	O-	1.F	-ſan-
.	.	.	.	1.F,	-ſan-	.	.
.	.	.	.	.	.	2G/	-na
=57-	=57-	=57-	=57-	=57-	=57-	=57-	=57-
.	.	.	.	.	.	1A	.
.	.	.	.	2G/	-na	.	.
.	.	.	.	1A	.	1D	.
*	*	*	*	*	*	*	*ij
.	.	.	.	1B,	.	1d	O-
=58-	=58-	=58-	=58-	=58-	=58-	=58-	=58-
!LO:N:vis=0	!	!LO:N:vis=0	!	!	!	!	!
0.r	.	0.r	.	0A	­	2c\	.
.	.	.	.	.	.	2A/	.
*	*	*	*	*	*	*col	*
.	.	.	.	.	.	0B	-ſan-
.	.	.	.	1G,	.	.	.
=59-	=59-	=59-	=59-	=59-	=59-	=59-	=59-
1D	O-	1r	.	0A	.	0.A	-na
*	*	*	*	*	*	*Xcol	*Xij
1.F	-ſan-	1D	O-	.	.	.	.
.	.	1.F	-San-	1r,	.	.	.
2G\	-na	.	.	.	.	.	.
=60-	=60-	=60-	=60-	=60-	=60-	=60-	=60-
!	!	!	!	!	!	!LO:N:vis=00	!
1A	.	.	.	1D	O-	00.r	.
.	.	2G/	-na	.	.	.	.
0D	.	1A	.	1.F	-ſan-	.	.
.	.	1B	.	.	.	.	.
.	.	.	.	2G,/	-na	.	.
=61-	=61-	=61-	=61-	=61-	=61-	=61-	=61-
2C/	.	0A	.	1A	.	.	.
2AA/	.	.	.	.	.	.	.
0BB	.	.	.	1D	.	.	.
.	.	1G	.	1d,	.	.	.
=62-	=62-	=62-	=62-	=62-	=62-	=62-	=62-
1AA	.	1A	.	2c\	.	0A	O-
.	.	.	.	2A\	.	.	.
1r	.	1r	.	0B,	.	.	.
1r	.	1r	.	.	.	1G	-ſan-
=63-	=63-	=63-	=63-	=63-	=63-	=63-	=63-
1D	O-	0A	o-	1A	.	1A	-na
2C/	-ſan-	.	.	1r	.	1r	.
2AA/	-na	.	.	.	.	.	.
*	*	*	*	*	*	*	*ij
1BB	.	1G	-ſan-	1r	.	1d	O-
*	*	*	*	*custos:A	*	*	*
=64-	=64-	=64-	=64-	=64-	=64-	=64-	=64-
!	!	!	!LO:LB:g=original	!	!	!	!
1AA	.	1A	-na	0A	.	2c\	-ſan-
.	.	.	.	.	.	2A\	.
1r	.	0E	.	.	.	0B	.
1r	.	.	.	1G,	.	.	.
*custos:AA	*	*	*	*	*	*custos:A	*
=65-	=65-	=65-	=65-	=65-	=65-	=65-	=65-
*	*	*	*	*col	*	*	*
!LO:LB:g=original	!	!	!	!	!	!LO:LB:g=original	!
1r	.	1F	.	1A	.	1A	.
0AA	.	1E	.	0c,	.	1.e	.
.	.	1F	.	.	.	.	.
.	.	.	.	.	.	2d\	.
*	*	*custos:G	*	*	*	*	*
=66-	=66-	=66-	=66-	=66-	=66-	=66-	=66-
*col	*	*col	*	*	*	*	*
!	!	!LO:PB:g=original	!	!	!	!	!
1GG	.	1G	.	1B	.	0d	.
0AA	.	0E	.	0A,	.	.	.
.	.	.	.	.	.	1c	.
*Xcol	*	*Xcol	*	*Xcol	*	*	*
=67-	=67-	=67-	=67-	=67-	=67-	=67-	=67-
!	!	!	!	!LO:TX:t=P:LO:N:vis=00:problem	!	!	!
0D	.	0D	.	1%5Al	.	0d	-na
*	*	*	*	*	*	*	*Xij
1r	.	1r	.	.	.	1r	.
=68-	=68-	=68-	=68-	=68-	=68-	=68-	=68-
*col	*	*	*	*	*	*	*
!	!	!	!	!	!	!LO:N:vis=00	!
0D	O-	2D/	o-	.	.	00.r	.
.	.	2E/	-ſan-	.	.	.	.
.	.	2F/	-na	.	.	.	.
.	.	2G/	.	.	.	.	.
1C	-ſan-	1A	.	1r	.	.	.
=69-	=69-	=69-	=69-	=69-	=69-	=69-	=69-
!	!	!	!	!LO:N:vis=0	!	!	!
1BB	-na	1G	.	0.r	.	.	.
0D	in	0B	in	.	.	.	.
=70-	=70-	=70-	=70-	=70-	=70-	=70-	=70-
1C	ex-	1.A	ex-	1r	.	1r	.
0BB	-cel-	.	.	1r	.	1r	.
.	.	4G/	-cel-	.	.	.	.
.	.	4F/	-ſis	.	.	.	.
*	*	*	*	*	*	*col	*
.	.	1G	.	2D/	O-	0d	O-
.	.	.	.	2E,/	-ſan-	.	.
*Xcol	*	*	*	*	*	*	*
=71-	=71-	=71-	=71-	=71-	=71-	=71-	=71-
0AA	-ſis	0A	.	2F/	-na	.	.
.	.	.	.	2G/	.	.	.
.	.	.	.	1A	.	1c	-ſan-
1r	.	1r	.	1.G,	.	1B	-na
=72-	=72-	=72-	=72-	=72-	=72-	=72-	=72-
!LO:N:vis=00	!	!LO:N:vis=00	!	!	!	!	!
00.r	.	00.r	.	.	.	0.d	in
.	.	.	.	2A/	.	.	.
.	.	.	.	0B,	in	.	.
=73-	=73-	=73-	=73-	=73-	=73-	=73-	=73-
.	.	.	.	1.A	ex-	1c	ex-
.	.	.	.	.	.	0B	-cel-
.	.	.	.	4G/	-cel-	.	.
.	.	.	.	4F/	-sis	.	.
.	.	.	.	1G,	.	.	.
*	*	*	*	*	*	*Xcol	*
=74-	=74-	=74-	=74-	=74-	=74-	=74-	=74-
*	*	*col	*ij	*	*	*	*
2D/	O-	0d	o-	0A	.	0A	-ſis
2E/	.	.	.	.	.	.	.
2F\	.	.	.	.	.	.	.
2G\	.	.	.	.	.	.	.
1A	-ſan-	1c	-ſan-	1r	.	1r	.
=75-	=75-	=75-	=75-	=75-	=75-	=75-	=75-
!	!	!	!	!LO:N:vis=00	!	!LO:N:vis=0	!
1G	-na	1B	-na	00.r	.	0.r	.
0B	in	0d	in	.	.	.	.
*	*	*Xcol	*	*	*	*	*
=76-	=76-	=76-	=76-	=76-	=76-	=76-	=76-
1.A	ex-	1c	ex-	.	.	1r	.
.	.	0B	-cel-	.	.	1r	.
4G\	-cel-	.	.	.	.	.	.
4F\	-ſis	.	.	.	.	.	.
*	*	*	*	*	*	*col	*
1G	.	.	.	.	.	0d	O-
*custos:A	*	*custos:A	*	*custos:A	*	*	*
=77-	=77-	=77-	=77-	=77-	=77-	=77-	=77-
!LO:LB:g=original	!	!LO:LB:g=original	!	!LO:LB:g=original	!	!	!
0A	.	1A	-ſis	2A/	O-	.	.
*	*	*	*Xij	*	*	*	*
.	.	.	.	2B/	-ſan-	.	.
.	.	1.A	O-	2c\	-na	0c	-ſan-
.	.	.	.	2d\	.	.	.
1r	.	.	.	1e,	.	.	.
.	.	2G/	.	.	.	.	.
*	*	*	*	*	*	*Xcol	*
=78-	=78-	=78-	=78-	=78-	=78-	=78-	=78-
1r	.	1G	.	1d	.	1B	-na
*col	*	*	*	*	*	*	*
0D	O-	1F	.	0f,	.	1d	.
*Xcol	*	*	*	*	*	*	*
.	.	1A	-ſan-	.	.	2A/	.
.	.	.	.	.	.	2B/	.
*	*	*	*	*	*	*custos:c	*
=79-	=79-	=79-	=79-	=79-	=79-	=79-	=79-
!	!	!	!	!	!	!LO:PB:g=original	!
0C	-ſan-	0E	-na	1e	.	2c\	.
.	.	.	.	.	.	2d\	.
.	.	.	.	1A	O-	1e	.
1BB	-na	1r	.	1G,	-ſan-	1r	.
=80-	=80-	=80-	=80-	=80-	=80-	=80-	=80-
*	*	*col	*	*	*	*	*
1D	in	0A	.	1F	-na	0d	O-
2AA/	ex-	.	.	1A	.	.	.
2BB/	.	.	.	.	.	.	.
2C/	.	0G	.	2E/	in	1c	-ſan-
2D/	.	.	.	2F,/	.	.	.
=81-	=81-	=81-	=81-	=81-	=81-	=81-	=81-
1E	.	.	.	2G/	.	1B	-na
.	.	.	.	2A/	.	.	.
*	*	*lig	*	*	*	*	*
1.D	-cel-	1F	.	2B\	.	1d	in
.	.	.	.	2c\	.	.	.
.	.	1.A	.	1d,	.	2A/	ex-
2C/	.	.	.	.	.	2B/	.
*	*	*Xcol	*	*	*	*	*
*	*	*Xlig	*	*	*	*	*
=82-	=82-	=82-	=82-	=82-	=82-	=82-	=82-
2AA/	.	.	.	0c	ex-	2c\	.
2BB/	.	2G/	.	.	.	2d\	.
1C	.	2E/	.	.	.	0e	.
.	.	2F/	.	.	.	.	.
2GG/	.	0G	in	1.B,	-cel-	.	.
2AA/	.	.	.	.	.	.	.
=83-	=83-	=83-	=83-	=83-	=83-	=83-	=83-
*	*	*	*	*	*	*lig	*
2BB/	.	.	.	.	.	1d	.
2C/	.	.	.	2A/	-ſis	.	.
1D	.	1F	ex-	1A	.	1f	.
*	*	*	*	*	*	*Xlig	*
1GG	.	1G	-cel-	1B	.	1e	.
*custos:BB	*	*	*	*custos:G	*	*	*
=84-	=84-	=84-	=84-	=84-	=84-	=84-	=84-
*col	*	*col	*	*col	*	*	*
!LO:LB:g=original	!	!	!	!LO:LB:g=original	!	!	!
1BB	.	1D	-ſis	1G	.	0d	.
0AA	.	0E	.	0A,	.	.	.
.	.	.	.	.	.	1c	-cel-
*Xcol	*	*Xcol	*	*Xcol	*	*	*
=85-	=85-	=85-	=85-	=85-	=85-	=85-	=85-
*	*	*	*	*	*	*col	*
0D	-ſis	0D	.	0A	.	0d	-ſis
1r	.	1r	.	1G,	.	0d	O-
=86-	=86-	=86-	=86-	=86-	=86-	=86-	=86-
1r	.	1r	.	1F	.	.	.
2AA/	O-	0A	O-	1A	.	0c	-san-
2BB/	-ſan-	.	.	.	.	.	.
2C/	-na	.	.	2E/	.	.	.
2D/	.	.	.	2F,/	O-	.	.
*	*	*	*	*	*	*Xcol	*
*	*	*custos:G	*	*	*	*custos:B	*
=87-	=87-	=87-	=87-	=87-	=87-	=87-	=87-
!	!	!LO:LB:g=original	!	!	!	!LO:LB:g=original	!
1E	.	1G	-ſan-	2G/	-ſan-	1B	-na
.	.	.	.	2A/	-na	.	.
1.D	in	1F	-na	2B/	.	1d	in
.	.	.	.	2c/	.	.	.
.	.	1.A	in	1d,	.	2A\	ex-
2C/	.	.	.	.	.	2B\	.
=88-	=88-	=88-	=88-	=88-	=88-	=88-	=88-
2AA/	.	.	.	0c	in	2c\	.
2BB/	.	2G/	ex-	.	.	2d\	.
1C	.	2E/	-cel-	.	.	0e	.
.	.	2F/	.	.	.	.	.
2GG/	.	0G	-ſis.	1.B,	ex-	.	.
2AA/	.	.	.	.	.	.	.
=89-	=89-	=89-	=89-	=89-	=89-	=89-	=89-
*	*	*	*	*	*	*lig	*
2BB/	.	.	.	.	.	1d	-cel-
2C/	.	.	.	2A/	-cel-	.	.
1D	.	1F	.	1A	-ſis	1f	.
*	*	*	*	*	*	*Xlig	*
1GG	ex-	1G	.	1B,	.	1e	.
=90-	=90-	=90-	=90-	=90-	=90-	=90-	=90-
*col	*	*col	*	*col	*	*	*
1BB	-cel-	1D	.	1G	.	1.d	.
0AA	-ſis	0E	.	0A,	.	.	.
.	.	.	.	.	.	4c\	.
.	.	.	.	.	.	4B\	.
.	.	.	.	.	.	1c	-ſis
*Xcol	*	*Xcol	*	*Xcol	*	*	*
=91-	=91-	=91-	=91-	=91-	=91-	=91-	=91-
0.D;<\l	.	0.D;l	.	0.F;l	.	0.d;<l	.
=92-	=92-	=92-	=92-	=92-	=92-	=92-	=92-
!LO:PB:g=original	!	!	!	!LO:PB:g=original	!	!LO:LB:g=original	!
*M2/1	*	*M2/1	*	*M2/1	*	*M2/1	*
*met(C|)	*	*met(C|)	*	*met(C|)	*	*met(C|)	*
!	!	!	!	!	!	!LO:TX:t=P:problem=ozdobna pierwsza litera tekstu w kolorze czerwonym	!
!	!	!LO:TX:a:t=Benedictus\ntacet:color=red	!	!	!	!LO:TX:a:t=Trium B(e)n(e)dict(us):color=red	!
0D	Be-	0ryy	.	00r	.	00r	.
=93-	=93-	=93-	=93-	=93-	=93-	=93-	=93-
1C	-ne-	0ryy	.	.	.	.	.
1D	-dic-	.	.	.	.	.	.
=94-	=94-	=94-	=94-	=94-	=94-	=94-	=94-
2AA/	-tus	0ryy	.	0A	Be-	1r	.
2.D/	.	.	.	.	.	.	.
.	.	.	.	.	.	0d	BE-
4C/	.	.	.	.	.	.	.
4BB/	.	.	.	.	.	.	.
4AA/	.	.	.	.	.	.	.
=95-	=95-	=95-	=95-	=95-	=95-	=95-	=95-
1BB	.	0ryy	.	1G	-ne-	.	.
2AA/	.	.	.	1A	-dic-	1c	-ne-
1A\	.	.	.	.	.	.	.
=96-	=96-	=96-	=96-	=96-	=96-	=96-	=96-
.	.	0ryy	.	2D/	-tus	1d	-dic-
2D/	.	.	.	2.A/	.	.	.
2D/	.	.	.	.	.	2A/	-tus
.	.	.	.	4G/	.	.	.
1B\	.	.	.	4F/	.	2.d\	.
.	.	.	.	4E/	.	.	.
=97-	=97-	=97-	=97-	=97-	=97-	=97-	=97-
.	.	0ryy	.	1F	.	.	.
.	.	.	.	.	.	4c/	.
1A	.	.	.	.	.	4B/	.
.	.	.	.	.	.	4A/	.
.	.	.	.	1E	.	1B	.
2G\	.	.	.	.	.	.	.
=98-	=98-	=98-	=98-	=98-	=98-	=98-	=98-
1A	.	0ryy	.	0A	.	2A/	.
.	.	.	.	.	.	2D/	be-
1r	.	.	.	.	.	2.F/	-ne-
.	.	.	.	.	.	4G/	-dic-
=99-	=99-	=99-	=99-	=99-	=99-	=99-	=99-
0.D	be-	0ryy	.	00r	.	2A/	-tus
.	.	.	.	.	.	1B	.
.	.	.	.	.	.	1A\	.
=100-	=100-	=100-	=100-	=100-	=100-	=100-	=100-
.	.	0ryy	.	.	.	.	.
.	.	.	.	.	.	4G/	.
.	.	.	.	.	.	4F/	.
1C	-ne-	.	.	.	.	4E/	.
.	.	.	.	.	.	4D/	.
.	.	.	.	.	.	2E/	.
*	*	*	*	*	*	*custos:D	*
=101-	=101-	=101-	=101-	=101-	=101-	=101-	=101-
!	!	!	!	!	!LO:LB:g=original	!	!
00D\	-dictus	0ryy	.	2r	.	2D/	.
.	.	.	.	2D/	be-	2.d\	.
.	.	.	.	2.F/	-ne-	.	.
.	.	.	.	.	.	4c\	.
.	.	.	.	.	.	4d\	.
.	.	.	.	4G/	-dic-	4e\	.
=102-	=102-	=102-	=102-	=102-	=102-	=102-	=102-
.	.	0ryy	.	2A/	-tus	2f\	.
.	.	.	.	1B	.	2d\	.
.	.	.	.	.	.	2.f\	.
.	.	.	.	1A\	.	.	.
.	.	.	.	.	.	8e\L	.
.	.	.	.	.	.	8d\J	.
*custos:AA	*	*	*	*	*	*	*
=103-	=103-	=103-	=103-	=103-	=103-	=103-	=103-
!LO:PB:g=original	!	!	!	!	!	!	!
0AA	.	0ryy	.	.	.	2c\	.
.	.	.	.	4G/	.	1d	.
.	.	.	.	4F/	.	.	.
.	.	.	.	4E/	.	.	.
.	.	.	.	4D/	.	.	.
.	.	.	.	2E/	.	2c\	.
*	*	*	*	*custos:D	*	*	*
=104-	=104-	=104-	=104-	=104-	=104-	=104-	=104-
!	!	!	!	!LO:LB:g=original	!	!	!
2r	.	0ryy	.	4D/	.	1d	.
.	.	.	.	4E/	.	.	.
2A\	.	.	.	4F/	.	.	.
.	.	.	.	4G/	.	.	.
4A\	.	.	.	2A/	.	2r	.
4G\	.	.	.	.	.	.	.
4F\	.	.	.	1B\	.	2.d\	Be-
4E\	.	.	.	.	.	.	.
=105-	=105-	=105-	=105-	=105-	=105-	=105-	=105-
1F	.	0ryy	.	.	.	.	.
.	.	.	.	.	.	4c\	-ne-
.	.	.	.	1A	.	4B\	-dic-
.	.	.	.	.	.	4A\	-tus
1E	.	.	.	.	.	1B	.
.	.	.	.	2G/	.	.	.
=106-	=106-	=106-	=106-	=106-	=106-	=106-	=106-
2r	.	0ryy	.	1A	.	2A/	.
2.D/	be-	.	.	.	.	1f	.
.	.	.	.	2F/	.	.	.
4C/	-ne-	.	.	.	.	.	.
4BB/	-dic-	.	.	2.G/	.	1e\	.
4AA/	-tus	.	.	.	.	.	.
=107-	=107-	=107-	=107-	=107-	=107-	=107-	=107-
1BB	.	0ryy	.	.	.	.	.
.	.	.	.	4F/	.	.	.
.	.	.	.	4E/	.	1d	.
.	.	.	.	4D/	.	.	.
1AA	.	.	.	1E	.	.	.
.	.	.	.	.	.	2c\	.
=108-	=108-	=108-	=108-	=108-	=108-	=108-	=108-
2r	.	0ryy	.	1D	.	2d\	.
2D/	qui	.	.	.	.	2f\	.
*	*	*	*	*	*	*custos:e	*
!	!	!	!	!	!	!LO:PB:g=original	!
2C/	.	.	.	1r	.	2e\	.
2D/	ve-	.	.	.	.	2d\	.
=109-	=109-	=109-	=109-	=109-	=109-	=109-	=109-
4AA/	-nit	0ryy	.	2r	.	00e	.
4BB/	.	.	.	.	.	.	.
4C/	.	.	.	2A/	qui	.	.
4D/	.	.	.	.	.	.	.
2E/	.	.	.	2G/	ve-	.	.
4AA/	.	.	.	2A/	-nit	.	.
4BB/	.	.	.	.	.	.	.
=110-	=110-	=110-	=110-	=110-	=110-	=110-	=110-
4C/	.	0ryy	.	4E/	.	.	.
4D/	.	.	.	4F/	.	.	.
*custos:E	*	*	*	*	*	*	*
!LO:LB:g=original	!	!	!	!	!	!	!
4E/	.	.	.	4G/	.	.	.
4F/	.	.	.	4A/	.	.	.
4G/	.	.	.	4B/	.	.	.
4E/	.	.	.	4G/	.	.	.
1A\	.	.	.	2c\	.	.	.
=111-	=111-	=111-	=111-	=111-	=111-	=111-	=111-
.	.	0ryy	.	1B	.	2r	.
2G\	.	.	.	.	.	2d\	.
2A\	.	.	.	2A/	.	2c\	qui
*	*	*	*	*custos:B	*	*	*
!	!	!	!	!LO:LB:g=original	!	!	!
2D/	.	.	.	1B\	.	2d\	ve-
=112-	=112-	=112-	=112-	=112-	=112-	=112-	=112-
1F	.	0ryy	.	.	.	4A/	-nit
.	.	.	.	.	.	4B/	.
.	.	.	.	1A	.	4c/	.
.	.	.	.	.	.	4d/	.
1E	.	.	.	.	.	0e	.
.	.	.	.	2G/	.	.	.
=113-	=113-	=113-	=113-	=113-	=113-	=113-	=113-
1AA	.	0ryy	.	2A/	.	.	.
.	.	.	.	2E/	.	.	.
*	*	*	*	*lig	*	*	*
2r	.	.	.	1F	.	2A/	.
2AA/	qui	.	.	.	.	2.c/	.
=114-	=114-	=114-	=114-	=114-	=114-	=114-	=114-
*lig	*	*	*	*	*	*	*
1C	ve-	0ryy	.	1E	.	.	.
.	.	.	.	.	.	4B/	.
.	.	.	.	.	.	1A	.
*	*	*	*	*Xlig	*	*	*
1BB	.	.	.	2D/	.	.	.
.	.	.	.	2d\	.	2G/	.
*Xlig	*	*	*	*	*	*	*
=115-	=115-	=115-	=115-	=115-	=115-	=115-	=115-
2AA/	-nit	0ryy	.	2c\	.	1A	.
2D/	.	.	.	2d\	.	.	.
1F	qui	.	.	4A/	.	2r	.
.	.	.	.	4B/	.	.	.
.	.	.	.	4c\	.	2A/	.
.	.	.	.	4d\	.	.	.
=116-	=116-	=116-	=116-	=116-	=116-	=116-	=116-
2E\	.	0ryy	.	1e	.	2G/	qui
2A\	ve-	.	.	.	.	2A/	ve-
2G\	-nit	.	.	2r	.	2E/	-nit
2A\	.	.	.	2A/	qui	2c\	.
=117-	=117-	=117-	=117-	=117-	=117-	=117-	=117-
2E/	.	0ryy	.	2G/	ve-	2B/	.
4AA/	.	.	.	2A/	-nit	2A/	.
4BB/	.	.	.	.	.	.	.
*custos:C	*	*	*	*	*	*	*
!LO:LB:g=original	!	!	!	!	!	!	!
4C/	.	.	.	4E/	.	0e	.
4D/	.	.	.	4F/	.	.	.
4E/	.	.	.	4G/	.	.	.
4F/	.	.	.	4A/	.	.	.
=118-	=118-	=118-	=118-	=118-	=118-	=118-	=118-
4G\	.	0ryy	.	4B/	.	.	.
4E\	.	.	.	4G/	.	.	.
1A	.	.	.	2c\	.	.	.
*	*	*	*	*custos:B	*	*custos:d	*
!	!	!	!	!LO:LB:g=original	!	!LO:LB:g=original	!
.	.	.	.	1B	.	2r	.
2G\	.	.	.	.	.	1d\	in
=119-	=119-	=119-	=119-	=119-	=119-	=119-	=119-
2A\	.	0ryy	.	1A	.	.	.
2AA/	in	.	.	.	.	2c\	no-
2C/	no-	.	.	1r	.	2e\	-mi-
2BB/	-mi-	.	.	.	.	2d\	-ne
=120-	=120-	=120-	=120-	=120-	=120-	=120-	=120-
2.D/	-ne	0ryy	.	2r	.	2.f\	.
.	.	.	.	1A	in	.	.
4C/	do-	.	.	.	.	4e\	do-
2AA/	-mi-	.	.	.	.	2c\	-mi-
2C/	-ni	.	.	2G/	no-	2e\	-ni
=121-	=121-	=121-	=121-	=121-	=121-	=121-	=121-
2GG/	.	0ryy	.	2B/	-mi-	1d	.
1D	.	.	.	2A/	-ne	.	.
.	.	.	.	2.c\	do-	1r	.
2C/	.	.	.	.	.	.	.
.	.	.	.	4B/	.	.	.
=122-	=122-	=122-	=122-	=122-	=122-	=122-	=122-
2E\	.	0ryy	.	2G/	.	00r	.
2D\	.	.	.	2B/	.	.	.
2.F\	.	.	.	2A/	.	.	.
.	.	.	.	1c\	.	.	.
4E\	.	.	.	.	.	.	.
=123-	=123-	=123-	=123-	=123-	=123-	=123-	=123-
2C/	.	0ryy	.	.	.	.	.
2E/	.	.	.	1B	.	.	.
*custos:D	*	*	*	*	*	*	*
!LO:LB:g=original	!	!	!	!	!	!	!
2.D/	.	.	.	.	.	.	.
.	.	.	.	1A\	.	.	.
4C/	.	.	.	.	.	.	.
=124-	=124-	=124-	=124-	=124-	=124-	=124-	=124-
1BB	.	0ryy	.	.	.	2r	.
*	*	*	*	*	*	*	*ij
.	.	.	.	2G/	-mi-	1d	in
1AA	.	.	.	2A/	-ni	.	.
.	.	.	.	1A\	.	2c\	no-
=125-	=125-	=125-	=125-	=125-	=125-	=125-	=125-
1r	.	0ryy	.	.	.	2e\	-mi-
.	.	.	.	2G/	.	2e\	-ne
2r	.	.	.	2B/	.	2d\	do-
1D/	in	.	.	2A/	.	2f\	-mi-
=126-	=126-	=126-	=126-	=126-	=126-	=126-	=126-
.	.	0ryy	.	2.c\	.	1e	-ni
*	*	*	*	*	*	*	*Xij
2C/	no-	.	.	.	.	.	.
.	.	.	.	4B/	.	.	.
2E/	-(m)i-	.	.	2G/	.	2r	.
2D/	-(n)e	.	.	2B/	.	1d\	.
*	*	*	*	*custos:A	*	*	*
=127-	=127-	=127-	=127-	=127-	=127-	=127-	=127-
!	!	!	!	!LO:PB:g=original	!	!	!
2r	.	0ryy	.	2.A/	.	.	.
1AA	in	.	.	.	.	2c\	in
.	.	.	.	4G/	.	.	.
.	.	.	.	2E/	.	2e\	no-
2GG/	no-	.	.	2G/	.	2e\	-(m)i-
=128-	=128-	=128-	=128-	=128-	=128-	=128-	=128-
2BB/	-mi-	0ryy	.	2F/	.	2d\	-(n)e
*	*	*	*	*	*	*lig	*
2AA/	-ne	.	.	1A	.	1f	.
2.C/	.	.	.	.	.	.	.
.	.	.	.	2.G/	.	1e\	.
4BB/	d(o-	.	.	.	.	.	.
*	*	*	*	*	*	*Xlig	*
=129-	=129-	=129-	=129-	=129-	=129-	=129-	=129-
2GG/	-mi)-	0ryy	.	.	.	.	.
.	.	.	.	4F/	.	.	.
*	*	*	*	*	*	*custos:d	*
!	!	!	!	!	!	!LO:LB:g=original	!
2BB/	-ni	.	.	4E/	.	1d	do-
.	.	.	.	4D/	.	.	.
1AA	.	.	.	1E	.	.	.
.	.	.	.	.	.	2c\	-mi-
=130-	=130-	=130-	=130-	=130-	=130-	=130-	=130-
0D\l	.	0ryy	.	0D;l	.	0d;<l	-ni
==	==	==	==	==	==	==	==
*-	*-	*-	*-	*-	*-	*-	*-
!!!system-decoration: [(s1,s2,s3,s4)]
!!!RDF**kern: > = above
!!!RDF**kern: < = below
!!!RDF**kern: l = terminal long
!!!ENC: Katarzyna Serwa
!!!END: 2022-02-28
!!!ENC: Mateusz Solarz
!!!END: 2022-02-22
